X: 41568
T: Untamed Grasses, The
R: reel
M: 4/4
K: Gminor
GA|:"Am"BGDG BdcB|"G/A"cAFA c2Bc|
"FMaj7/A"dGG_G =GBAG|"E7"A_GD_G A4|
"Am"BGDG BdcB|"G/A"cAFA c2Bc|
"FMaj7"d2ed "E7"cBAc|"Am"BGG_G =G2:|
|:"Am"gdgb "G/B"agab|"Am/C"gdBd "Am"G4|
"G"C2FA FABc|"E7"d_G=GA dcBA|
"Am"G3b "G/B"agab|"Am/C"gdBd "Am"GABc|
"FMaj7"d2ed "E7"cBAc|"Am"BGG_G|=G8:|

